resources/img/scalable/actions/flypie-cookie-symbolic.svg

<?xml version="1.0" encoding="UTF-8" standalone="no"?>
<svg
   xmlns:dc="http://purl.org/dc/elements/1.1/"
   xmlns:cc="http://creativecommons.org/ns#"
   xmlns:rdf="http://www.w3.org/1999/02/22-rdf-syntax-ns#"
   xmlns:svg="http://www.w3.org/2000/svg"
   xmlns="http://www.w3.org/2000/svg"
   xmlns:sodipodi="http://sodipodi.sourceforge.net/DTD/sodipodi-0.dtd"
   xmlns:inkscape="http://www.inkscape.org/namespaces/inkscape"
   width="4.2333mm"
   height="4.2333mm"
   version="1.1"
   viewBox="0 0 4.2333 4.2333"
   id="svg14"
   sodipodi:docname="flypie-cookie-symbolic.svg"
   inkscape:version="1.0.2 (e86c870879, 2021-01-15)">
  <defs
     id="defs18">
    <inkscape:path-effect
       effect="fillet_chamfer"
       id="path-effect981"
       is_visible="true"
       lpeversion="1"
       satellites_param="F,0,0,1,0,0.1,0,1 @ F,0,0,1,0,0.1,0,1 @ F,0,0,1,0,0.1,0,1 @ F,0,0,1,0,0.1,0,1 @ F,0,0,1,0,0.1,0,1 @ F,0,0,1,0,0.1,0,1"
       unit="px"
       method="auto"
       mode="F"
       radius="0.1"
       chamfer_steps="1"
       flexible="false"
       use_knot_distance="true"
       apply_no_radius="true"
       apply_with_radius="true"
       only_selected="false"
       hide_knots="false" />
    <inkscape:path-effect
       effect="fillet_chamfer"
       id="path-effect975"
       is_visible="true"
       lpeversion="1"
       satellites_param="F,0,0,1,0,0.1,0,1 @ F,0,0,1,0,0.1,0,1 @ F,0,0,1,0,0.1,0,1 @ F,0,0,1,0,0.1,0,1 @ F,0,0,1,0,0.1,0,1 @ F,0,0,1,0,0.1,0,1"
       unit="px"
       method="auto"
       mode="F"
       radius="0.1"
       chamfer_steps="1"
       flexible="false"
       use_knot_distance="true"
       apply_no_radius="true"
       apply_with_radius="true"
       only_selected="false"
       hide_knots="false" />
    <inkscape:perspective
       sodipodi:type="inkscape:persp3d"
       inkscape:vp_x="-5.4065435 : 7.3003591 : 1"
       inkscape:vp_y="0 : 1000 : 0"
       inkscape:vp_z="11.931435 : 7.2381679 : 1"
       inkscape:persp3d-origin="2.11665 : 1.4111 : 1"
       id="perspective929" />
  </defs>
  <sodipodi:namedview
     pagecolor="#ffffff"
     bordercolor="#666666"
     borderopacity="1"
     objecttolerance="10"
     gridtolerance="10"
     guidetolerance="10"
     inkscape:pageopacity="0"
     inkscape:pageshadow="2"
     inkscape:window-width="1920"
     inkscape:window-height="1131"
     id="namedview16"
     showgrid="false"
     inkscape:zoom="22.061268"
     inkscape:cx="0.85995197"
     inkscape:cy="8.2472363"
     inkscape:window-x="0"
     inkscape:window-y="32"
     inkscape:window-maximized="1"
     inkscape:current-layer="svg14"
     inkscape:document-rotation="0" />
  <metadata
     id="metadata2">
    <rdf:RDF>
      <cc:Work
         rdf:about="">
        <dc:format>image/svg+xml</dc:format>
        <dc:type
           rdf:resource="http://purl.org/dc/dcmitype/StillImage" />
        <dc:title></dc:title>
      </cc:Work>
    </rdf:RDF>
  </metadata>
  <path
     id="path1435"
     style="font-variation-settings:normal;opacity:1;vector-effect:none;fill:#2e3436;fill-opacity:1;stroke:none;stroke-width:0.999995px;stroke-linecap:butt;stroke-linejoin:miter;stroke-miterlimit:4;stroke-dasharray:none;stroke-dashoffset:0;stroke-opacity:1;stop-color:#000000;stop-opacity:1"
     d="M 8.1230469 0.095703125 C 6.5919986 0.092744722 4.9831743 0.56911071 3.6933594 1.421875 C 1.7884465 2.6813127 0.56211124 4.609948 0.20703125 6.90625 C 0.12730011 7.4218751 0.12730011 8.5527343 0.20703125 9.0683594 C 0.44612664 10.614587 1.0675514 11.972217 2.0625 13.119141 C 3.4411384 14.708362 5.403501 15.690116 7.5195312 15.847656 C 8.6796819 15.934029 9.9575703 15.737867 11.033203 15.310547 C 12.901005 14.568517 14.353234 13.242608 15.236328 11.472656 C 15.501895 10.940376 15.825001 10.056032 15.832031 9.8417969 C 15.837273 9.6823084 15.749955 9.5644594 15.591797 9.5175781 C 15.46518 9.4800436 15.449438 9.4836154 15.175781 9.625 C 14.655548 9.8937811 14.222681 9.9792885 13.748047 9.9082031 C 12.762996 9.7606787 12.045733 9.0318404 11.982422 8.1171875 C 11.97165 7.9622099 11.979453 7.7818582 12.003906 7.6660156 C 12.08393 7.2869044 12.083248 7.2175164 11.992188 7.1308594 C 11.912072 7.0546187 11.893899 7.0521271 11.410156 7.0507812 C 10.950537 7.0495038 10.890398 7.0416238 10.650391 6.9589844 C 10.114631 6.7745173 9.721467 6.4494192 9.4960938 6.0039062 C 9.2715936 5.5601258 9.24504 5.1412862 9.4101562 4.6679688 C 9.5467748 4.2763435 9.5217594 4.1846522 9.2167969 3.984375 C 8.9298699 3.7959429 8.6307675 3.459635 8.484375 3.15625 C 8.4135089 3.0093813 8.3398905 2.8108648 8.3203125 2.7167969 C 8.2695421 2.4726583 8.2777214 2.0453483 8.3359375 1.8242188 C 8.4408001 1.4258923 8.6588183 1.1103443 9.0761719 0.75585938 C 9.2145631 0.63829905 9.2304688 0.61058966 9.2304688 0.49023438 C 9.2304688 0.38844644 9.208132 0.33082032 9.1386719 0.25390625 C 9.0546265 0.16083628 9.0255925 0.15075735 8.7734375 0.12695312 C 8.559046 0.10670908 8.3417681 0.096125754 8.1230469 0.095703125 z M 12.726562 1.03125 C 12.427202 0.95984886 11.659797 1.1982164 10.404297 1.7519531 C 9.9935548 1.9331102 9.905746 2.0117239 9.9140625 2.1894531 C 9.918432 2.282686 10.892018 3.9608686 10.974609 4.0175781 C 11.515992 4.1662889 12.092509 4.3409985 12.587891 3.9121094 C 12.923591 3.6028708 13.151785 3.042461 13.201172 2.4042969 C 13.25806 1.6691824 13.066366 1.1123077 12.726562 1.03125 z M 5.1835938 2.7070312 A 0.98326958 0.98326958 0 0 1 6.1660156 3.6914062 A 0.98326958 0.98326958 0 0 1 5.1835938 4.6738281 A 0.98326958 0.98326958 0 0 1 4.1992188 3.6914062 A 0.98326958 0.98326958 0 0 1 5.1835938 2.7070312 z M 13.972656 4.7148438 C 13.923715 4.7222919 13.875756 4.7373489 13.828125 4.7617188 C 13.603921 4.8764301 13.322183 5.4649026 12.927734 6.6425781 C 12.755769 7.1560085 12.690905 7.3912408 12.705078 7.4550781 C 12.747622 7.6467244 12.808257 7.6679676 13.816406 7.8710938 C 14.335335 7.975651 14.794681 8.0626998 14.835938 8.0644531 C 14.930305 8.0684628 15.064873 8.0006168 15.15625 7.9023438 C 15.52493 7.5058535 15.479935 6.6696265 15.039062 5.7539062 C 14.686239 5.0210714 14.315242 4.6627067 13.972656 4.7148438 z M 3.4667969 6.734375 A 1.3340424 1.3340424 0 0 1 4.8007812 8.0683594 A 1.3340424 1.3340424 0 0 1 3.4667969 9.4023438 A 1.3340424 1.3340424 0 0 1 2.1328125 8.0683594 A 1.3340424 1.3340424 0 0 1 3.4667969 6.734375 z M 7.1796875 7.6054688 A 0.75448662 0.75448662 0 0 1 7.1953125 7.6054688 A 0.75448662 0.75448662 0 0 1 7.9511719 8.359375 A 0.75448662 0.75448662 0 0 1 7.1953125 9.1132812 A 0.75448662 0.75448662 0 0 1 6.4414062 8.359375 A 0.75448662 0.75448662 0 0 1 7.1796875 7.6054688 z M 10.566406 9.8203125 A 0.94609823 0.94609823 0 0 1 10.580078 9.8203125 A 0.94609823 0.94609823 0 0 1 11.525391 10.765625 A 0.94609823 0.94609823 0 0 1 10.580078 11.710938 A 0.94609823 0.94609823 0 0 1 9.6328125 10.765625 A 0.94609823 0.94609823 0 0 1 10.566406 9.8203125 z M 6.9628906 11.404297 A 1.3168275 1.3168275 0 0 1 8.2792969 12.720703 A 1.3168275 1.3168275 0 0 1 6.9628906 14.039062 A 1.3168275 1.3168275 0 0 1 5.6464844 12.720703 A 1.3168275 1.3168275 0 0 1 6.9628906 11.404297 z "
     transform="scale(0.26458332)" />
</svg>

<svg xmlns="http://www.w3.org/2000/svg" width="16" height="16" viewBox="0 0 4.233 4.233"><path style="font-variation-settings:normal;opacity:1;vector-effect:none;fill:#2e3436;fill-opacity:1;stroke:none;stroke-width:.999995px;stroke-linecap:butt;stroke-linejoin:miter;stroke-miterlimit:4;stroke-dasharray:none;stroke-dashoffset:0;stroke-opacity:1;stop-color:#000;stop-opacity:1" d="M8.123.096a8.184 8.184 0 0 0-4.43 1.326C1.788 2.682.563 4.61.207 6.906c-.08.516-.08 1.647 0 2.162.24 1.547.86 2.904 1.855 4.051a8.007 8.007 0 0 0 5.458 2.729 8.188 8.188 0 0 0 3.513-.537c1.868-.742 3.32-2.068 4.203-3.838.266-.533.589-1.417.596-1.631.005-.16-.082-.278-.24-.324-.127-.038-.143-.034-.416.107-.52.269-.953.354-1.428.283-.985-.147-1.702-.876-1.766-1.79a1.836 1.836 0 0 1 .022-.452c.08-.38.08-.448-.012-.535-.08-.076-.098-.079-.582-.08-.46-.001-.52-.01-.76-.092-.535-.184-.929-.51-1.154-.955a1.602 1.602 0 0 1-.086-1.336c.137-.392.112-.483-.193-.684a2.28 2.28 0 0 1-.733-.828 2.456 2.456 0 0 1-.164-.44 2.449 2.449 0 0 1 .016-.892c.105-.398.323-.714.74-1.068C9.215.638 9.23.61 9.23.49A.304.304 0 0 0 9.14.254C9.055.16 9.026.15 8.773.127a7.068 7.068 0 0 0-.65-.031zm4.604.935c-.3-.071-1.067.167-2.323.721-.41.181-.498.26-.49.437.004.094.978 1.772 1.06 1.829.542.148 1.119.323 1.614-.106.336-.31.564-.87.613-1.508.057-.735-.135-1.292-.474-1.373zM5.184 2.707a.983.983 0 0 1 .982.984.983.983 0 0 1-.982.983.983.983 0 0 1-.985-.983.983.983 0 0 1 .985-.984zm8.789 2.008a.47.47 0 0 0-.145.047c-.224.114-.506.703-.9 1.88-.172.514-.237.75-.223.813.043.192.103.213 1.111.416.52.105.979.192 1.02.193.094.004.229-.063.32-.162.369-.396.324-1.232-.117-2.148-.353-.733-.724-1.091-1.066-1.04zM3.467 6.735A1.334 1.334 0 0 1 4.8 8.067a1.334 1.334 0 0 1-1.334 1.334 1.334 1.334 0 0 1-1.334-1.334 1.334 1.334 0 0 1 1.334-1.334zm3.713.87a.754.754 0 0 1 .015 0 .754.754 0 0 1 .756.754.754.754 0 0 1-.756.754.754.754 0 0 1-.754-.754.754.754 0 0 1 .739-.754zm3.386 2.215a.946.946 0 0 1 .014 0 .946.946 0 0 1 .945.946.946.946 0 0 1-.945.945.946.946 0 0 1-.947-.945.946.946 0 0 1 .933-.946zm-3.603 1.584a1.317 1.317 0 0 1 1.316 1.317 1.317 1.317 0 0 1-1.316 1.318 1.317 1.317 0 0 1-1.317-1.318 1.317 1.317 0 0 1 1.317-1.317z" transform="scale(.26458)"/></svg>
